X:1
T:Title
%%score ( 1 2 ) ( 3 4 )
L:1/8
Q:1/4=105
M:4/4
K:C
V:1 treble nm="Grand Piano, Soprano"
V:2 treble 
V:3 bass nm="Choir Pad, Jodhpur, 886 D"
V:4 bass 
V:1
 [CG]2 [CG]2 F-[B,F]EF | [DG]2 A,-[A,D] [A,E]2 [B,D]2 | [DA]2 [DA]2 G-[^CG]FG | %3
w: By~Edward~d’Evry,~1905 * * * * *|||
 [EA]2 A,-[A,E] F-[CF] [B,E]2 | [CE]2 [B,D]2 [B,G]2 A2- | AA G2- G-[FG-] [EG]2 | %6
w: |||
 [DG]2 [Gc]2 [GB][FA] [Ec]2 | [EG]2 [CA]2 GF [B,G]2 | [DG]2 [Gc]2 [GB][FA] [Ec]2 | %9
w: |||
 [EG]2 [EA]2 BA [B,G]2 | [CG]2 [FA]2 [Fc]2 d2- | dc [Ec]6- | [Ec]2 z2 z4 |] %13
w: ||||
V:2
 z4 .A,2 C2 | z2 .C2 z4 | z4 .B,2 D2 | z2 .D2 .D2 z2 | z4 z2 E2 | D2 B,4 z2 | x8 | z4 C2 z2 | x8 | %9
 z4 D2 z2 | z4 z2 F2 | F2 z2 z4 | x8 |] %13
V:3
 [E,G,]2 [E,G,]2 [D,G,]2 [C,G,]2 | [B,,G,]2 [A,,E,]2 [D,^F,]2 [G,,G,]2 | %2
 [F,A,]2 [F,A,]2 [E,A,]2 [D,A,]2 | [^C,A,]2 [F,A,]2 [D,A,]2 [E,^G,]2 | %4
 [D,G,]2 [D,G,]2 [D,G,]2 [D,G,]2 | [D,^F,]2 G,2- G,A, G,2 | [F,B,]2 [E,C]2 [F,C]2 [C,C]2 | %7
 CB, [F,A,]2 [D,A,]2 [G,,G,]2 | [F,B,]2 [E,C]2 [F,C]2 [C,C]2 | [B,,G,]2 [C,G,]2 [D,^F,]2 G,=F, | %10
 [E,G,]2 [F,C]2 [D,C]2 [G,C]2 | [G,B,]2 [C,G,]6- | [C,G,]2 z2 z4 |] %13
V:4
 x8 | x8 | x8 | x8 | x8 | z2 G,,6 | x8 | E,2 z2 z4 | x8 | x8 | x8 | x8 | x8 |] %13

